X: 13194
T: First Train To Kyle, The
R: jig
M: 6/8
K: Gmajor
dc|B/A/GB gdB|cAe dBG|c/B/Ac B/A/G=B|A>=FA cdc|
B/A/GB gdB|cAe dBG|c/d/ec B<gB|A<dB G:|
dc|BGc AdB|ecg dBG|=B>AF c>^BG|ecg fde/f/|
gdB G/A/BG|ecg dBG|c/d/ec B<gB|A<dB G:|

